X:96
T:Over Kidron Jesus Treadeth
%%stretchlast false
M:4/4
L:1/4
K:F clef=C1
"^vi"[D,F,DA] "^♭vi°¹"[E,G,_DG] "^vi¹"[F,A,DF] "^IV"[B,,F,D] | "^vi¹"[F,,A,DF] "^vii°¹"[G,,G,B,E] "^III"[A,,E,A,_D] [A,,_D,G,A,] | "^IV"[B,,D,F,D]3/2 "^vii°¹"[G,,G,B,E]/ "^vi"[D,F,A,F] "^V"[C,G,CE]/ "^V7³"[B,,G,CE]/ | "^I¹"[A,,CFA] "^V"[C,CEG]/ "^V7"[C,B,EG]/ "^I"[F,A,CF]3/2 "^vi¹"[F,,D]/ | [F,,A,DA]/ "^iii"[G,,A,EA]/ [G,,B,EG]/ "^III"[A,,B,_DG]/ "^III+"[A,,A,_DF]/ "^IVmaj7"[B,,A,DF]/ "^IV"[B,,F,D]/ "^ii7"[G,,F,B,D]/ | [G,,B,F]/ [G,,B,F]/ [G,,G,B,E]/ "^iii7"[A,,G,A,E]/ "^III"[A,,E,A,_D]/ [A,,E,A,_D]/ [A,,_D,A,]/ [A,,_D,A,B,]/ | "^IVmaj7³"[A,,F,B,D] "^ii7"[G,,F,B,D]/ "^V"[F,,G,CE]/ "^I"[F,,A,CF]/ "^ivmaj7¹"[_D,A,B,F]/ "^iv°7¹"[_D,G,B,E]/ "^iii7¹"[C,G,A,E]/ | "^I²"[C,F,A,A]/ [C,F,CA]/ "^V7"[C,E,B,G]/ "^I"[F,,E,A,G]/ [F,,F,A,F] "^i"[C,F,CF] | "^V7³"[B,,E,CG] "^I"[A,,E,FG] "^vi7"[D,CFA] "^I"[G,,A,EF] | "^iv"[A,,B,FB]/ [B,,B,FB]/ "^iii¹"[C,CEA] "^V"[C,CEG]/ "^i"[F,CFG] "^♭VII"[_E,G]/ | "^iiiø7²"[_E,CGA]/ [D,CGA]/ "^iii"[D,CGA]/ "^iiiø7²"[_E,CGA]/ "^♭VIImaj7"[_E,DGB]/ "^VI²"[A,,D_GB]/ "^V/ii²"[A,,B,_GG]/ "^ii¹"[B,,B,G]/ | "^v"[C,CGc]/ "^VI"[D,C_Gc]/ "^VI+"[D,D_GB] "^ii"[G,,DGA] [A,,DEA] | "^IV"[B,,DB] "^III"[A,,_DEA] "^ii"[D,,DG] "^III²"[E,,_DA] | "^I"[F,,A,F] "^vii¹"[G,,G,E] "^vi²"[A,,F,G,D] "^ii"[A,,D,G,B,]/ [A,,D,G,B,]/ | "^ivmaj7"[B,,_D,F,A,] "^IV"[B,,_D,A,D]/ "^III"[A,,E,_DD]/ "^ii7"[G,,D,DF] [G,,D,F] | "^vii°¹"[G,,B,EA] "^ii"[G,,B,DA] [A,,B,DG] "^IVmaj7³"[A,,B,DF] | "^III7"[A,,G,_DE]2 [D,G,A,E]2 | "^vi"[D,F,A,D]4 |]
